X:1117
M:C
L:1/8
Q:1/4=104
K:D
f2   f2  ec      BA      | A^G  B>d {d}c4        |
d>B  d>B e2 {fed}cz      |!d>B  d>B    e2 {fed}cz|
f>d ^g>e a2      g/f/e/d/| c2  TB2     HA2     z2|!
d>e``f>d B2      B2      | e>f``g>e    c3       A|de`fg  abc'Hd'|a<f e>f    d4 |]

